X:2449
T:Cambrian Lyrist, The
R:Jig
O:England
M:6/8
N:from a printed tunebook owned by the Winders
A:Lancashire
B:Winder
K:G
G/2A/2 | B2B BAG | d2d dcB | g2g gfe | dcB Adc | \
B2B BAG | d2d dcB | g2g fef | g3 g2 :|*
 |:g | f2g agf | g2b d2g | f2g agf | g3 gdc | \
B2B BAG | d2d dcB | g2g fef | g3 g2 :|**


